lending/img/email-rass/email-vk.svg

<svg width="31" height="19" viewBox="0 0 31 19" fill="none" xmlns="http://www.w3.org/2000/svg">
<path d="M29.7836 0.794454H24.7531C24.3347 0.794451 23.9503 1.03091 23.7525 1.40988C23.7525 1.40988 21.7461 5.2086 21.1016 6.48809C19.3679 9.93005 18.2452 8.8495 18.2452 7.25205V1.74404C18.2452 0.78558 17.4894 0.008596 16.5571 0.008596H12.7748C11.7276 -0.0714566 10.7146 0.411751 10.0979 1.28562C10.0979 1.28562 12.0185 0.966368 12.0185 3.62681C12.0185 4.28652 12.0515 6.18436 12.0816 7.77614C12.0933 8.2566 11.8122 8.69352 11.3776 8.87053C10.9429 9.04754 10.4471 8.92707 10.1355 8.56878C8.58734 6.35515 7.30497 3.95737 6.31622 1.42754C6.14282 1.04109 5.76641 0.793835 5.35245 0.794454C4.2615 0.794454 2.07839 0.794454 0.781922 0.794454C0.526721 0.792669 0.286954 0.919895 0.140536 1.13479C-0.00588161 1.34968 -0.040261 1.62482 0.0485699 1.87078C1.4364 5.78445 7.41474 18.0833 14.2384 18.0833H17.1105C17.7372 18.0833 18.2452 17.5611 18.2452 16.9168V15.1339C18.2452 14.6768 18.5094 14.2633 18.9174 14.0819C19.3255 13.9004 19.7995 13.9855 20.1236 14.2985L23.5613 17.6191C23.87 17.9173 24.2777 18.0833 24.7013 18.0833H29.2156C31.3928 18.0833 31.3928 16.5301 30.2057 15.3282C29.3703 14.4824 26.3557 11.2156 26.3557 11.2156C25.8223 10.6475 25.7714 9.76441 26.2359 9.13555C27.2103 7.81726 28.8041 5.65931 29.48 4.73486C30.4039 3.47129 32.0761 0.794454 29.7836 0.794454Z" fill="#0577FF"/>
</svg>

<svg width="31" height="19" fill="none" xmlns="http://www.w3.org/2000/svg"><path d="M29.784.794h-5.03c-.42 0-.804.237-1.002.616 0 0-2.006 3.799-2.65 5.078-1.734 3.442-2.857 2.362-2.857.764V1.744c0-.958-.756-1.735-1.688-1.735h-3.782a2.998 2.998 0 00-2.677 1.277s1.92-.32 1.92 2.34c0 .66.034 2.558.064 4.15.011.48-.27.918-.704 1.095-.435.177-.93.056-1.242-.302a34.15 34.15 0 01-3.82-7.141 1.058 1.058 0 00-.964-.634H.782a.77.77 0 00-.641.34.817.817 0 00-.092.737c1.387 3.913 7.366 16.212 14.19 16.212h2.871c.627 0 1.135-.522 1.135-1.166v-1.783c0-.457.264-.87.672-1.052a1.092 1.092 0 011.207.216l3.437 3.321a1.64 1.64 0 001.14.464h4.515c2.177 0 2.177-1.553.99-2.755-.836-.846-3.85-4.112-3.85-4.112a1.635 1.635 0 01-.12-2.08 1508.27 1508.27 0 003.244-4.401c.924-1.264 2.596-3.94.304-3.94z" fill="#0577FF"/></svg>
